X:1
T:Title
%%score { ( 1 3 ) | ( 2 4 ) }
L:1/8
Q:1/4=112
M:4/4
K:Ab
V:1 treble nm="Grand Piano"
V:3 treble 
V:2 bass 
V:4 bass 
V:1
 [CE]2 [CE]2 [_C=D]2 [=CE]2 | [DF]2 [CE]2 [Ec]4 | c2 B2 A2 B2 | [Ec]4 [CA]4 | %4
w: B.~D.~Ackley * * *||||
 [DF]2 [FA]2 [EG]2 F2 | F2 E2 [Ec]4 | [EB]2 [EG]2 [EB]2 [EG]2 | [=DF]4 E2 z2 | %8
w: ||||
 [Ec]2 [Ec]2 [CA]2 [CE]2 | [_CF]4[K:bass] z4 | %10
w: ||
[M:19/16][K:treble] [Ec]-<[Ec][CA]-<[CA]e/-e/-e/-e/-e/-e-<ec |[M:4/4] c2 B4 z2 | %12
w: ||
 [Ec]2 [Ec]2 [CA]2 [CE]2 | [DF]2 [FA]2 [Fd]4 | c2 A2 e3 [Ec] | [DB]4 [CA]4 |] %16
w: ||||
V:2
 [A,,A,]2 [A,,A,]2 [A,,A,]2 [A,,A,]2 | [A,,A,]2 [A,,A,]2 [A,,A,]4 | %2
 [E,G,E]2 [E,G,D]2 [F,A,C]2 [E,G,E]2 | [A,,A,]4 [A,,A,]4 | [D,A,]2 [D,D]2 [D,D]2 [D,A,D]2 | %5
 [A,D]2 [A,C]2 [A,,A,]4 | [B,,G,]2 [B,,B,]2 [B,,G,]2 [B,,B,]2 | [B,,A,]4 [E,G,]2 z2 | %8
 [A,,A,]2 [A,,A,]2 [A,,E,]2 [A,,A,]2 | =D,2 z2 [A,,A,]4 | %10
[M:19/16] [A,,A,]-<[A,,A,][A,,A,]-<[A,,A,][A,CE]/-[A,CE]/-[A,CE]/-[A,CE]/-[A,CE]/-[A,CE]-<[A,CE][A,E] | %11
[M:4/4] [E,A,E]2 [E,G,D]4 z2 | [A,,A,]2 [A,,A,]2 [A,,E,]2 [A,,A,]2 | [D,A,]2 [D,D]2 [D,D]4 | %14
 [A,EA]2 [A,CE]2 [A,CA]3[K:bass] [A,,A,] | [E,G,]4 [A,,E,A,]4 |] %16
V:3
 x8 | x8 | x8 | x8 | x8 | x8 | x8 | x8 | x8 | z2[K:bass] F,2 [=CE]4 |[M:19/16][K:treble] x19/2 | %11
[M:4/4] x8 | x8 | x8 | x8 | x8 |] %16
V:4
 x8 | x8 | x8 | x8 | x8 | x8 | x8 | x8 | x8 | A,,4 z4 |[M:19/16] x19/2 |[M:4/4] x8 | x8 | x8 | %14
 x7[K:bass] x | x8 |] %16

